X: 2117
T: GREEN GROWS THE RASHES O'
C:
Q: "Reel."
R: Reel.
%R: reel
B: James Kerr "Merry Melodies" v.2 p.14 #117
Z: 2016 John Chambers <jc:trillian.mit.edu>
M: C
L: 1/8
K: G
uD |\
G/G/G (BA) BGGB | Aeed eAAB |\
cBce d/c/B/A/ GB | AcBA GEE ::\
uD |\
G/G/G (gf) gddg | eaag aeef |\
gage d/c/B/A/ GB | AcBA GEE :|
